X: 9
M: C|
L: 1/8
K: G
vD2 BA (Bd).e.f | deBd AFDF | D2 BA (Bd).e.f | dBAF BE Ez |
ue |\
eB B2 efge | fdad bdad | eB B2 efge | fedf e2 ef |
eB B2 efge | fdad bdad | gafg egfe | dBAF BE E2 |]


